!!!OTL: Archaniol Gabriel
**kern
*staff1
=1-
*clefG2
*k[b-]
*met(c|)
*M2/2
2g/
2g/
2g/
2g/
1b-
1f
=2
!LO:TX:Y=123:t=P
1b-
2f/
1g
2f/
1e-
1d
=3
!!linebreak:original
2d/
2d/
2a/
2b-\
1f
1g
=4
2.b-\
4a/
2g/
1f
2g/
1d
1g
!!linebreak:original
=5
2g/
2g/
2g/
2g/
=6
1g
1d
1b-
2f/
1g
2f/
1e-
1d
=7
!!linebreak:original
2d/
2d/
2a/
2b-\
1f
1g
=8
2.b-\
4a/
2g/
1f
2g/
1d
0g
==
*-
!!title: @{OTL}, @{GTL}, ed. @{ENC}
!!!pag:
!!!GTL: Hymnbook D
!!!EFL: 
!!!YEM: Creative Commons CC/BY/NC/SA 4.0
!!!ENC: Marcin Konik
!!!END: 2015-0m-dd
!!!EED: Marcin Konik
!!!EEV: 
!!!ONB: Encoded in vim by Marcin Konik
!!!CharacterEncoding: utf-8
!!!RDF**kern: l=long note in original notation
!!!RDF**kern: i=editorial accidental
!!muse2ps: z14jc180F
!!!COM: Anonim
!!!CDT: [?]
!!!TXO: Polish
!!!ODT: 
!!!GTL: Hymnbook D
!!!ARL: Opactwo św. Wojciecha, Staniątki 
!!!voices:	1
